src/qt/rapids/res/img/ic-nav-settings-hover.svg

<?xml version="1.0" encoding="UTF-8"?>
<svg width="24px" height="40px" viewBox="0 0 24 40" version="1.1" xmlns="http://www.w3.org/2000/svg" xmlns:xlink="http://www.w3.org/1999/xlink">
    <!-- Generator: Sketch 52.6 (67491) - http://www.bohemiancoding.com/sketch -->
    <title>Settings</title>
    <desc>Created with Sketch.</desc>
    <g id="Settings" stroke="none" stroke-width="1" fill="none" fill-rule="evenodd">
        <path d="M14.9,35 L9.1,35 L8.787,31.864 L8.72,31.837 L6.281,33.837 L2.167,29.725 L4.167,27.285 L4.139,27.219 L1,26.9 L1,21.1 L4.135,20.786 L4.163,20.72 L2.163,18.28 L6.276,14.168 L8.715,16.168 L8.782,16.141 L9.1,13 L14.9,13 L15.213,16.136 L15.28,16.163 L17.719,14.163 L21.828,18.27 L19.828,20.71 L19.856,20.776 L23,21.1 L23,26.9 L19.865,27.214 L19.837,27.28 L21.837,29.72 L17.728,33.827 L15.289,31.827 L15.222,31.854 L14.9,35 Z M10.9,33 L13.1,33 L13.361,30.39 L13.987,30.19 C14.3287124,30.08012 14.660554,29.9416296 14.979,29.776 L15.562,29.476 L17.595,31.14 L19.143,29.591 L17.479,27.556 L17.779,26.972 C17.9446037,26.6542337 18.0830952,26.3230586 18.193,25.982 L18.393,25.357 L21,25.1 L21,22.9 L18.39,22.639 L18.19,22.014 C18.0800952,21.6729414 17.9416037,21.3417663 17.776,21.024 L17.476,20.44 L19.138,18.41 L17.59,16.861 L15.557,18.525 L14.974,18.225 C14.655552,18.0593747 14.3237108,17.9208845 13.982,17.811 L13.356,17.611 L13.1,15 L10.9,15 L10.639,17.61 L10.013,17.81 C9.67128919,17.9198845 9.33944799,18.0583747 9.021,18.224 L8.438,18.524 L6.41,16.861 L4.862,18.41 L6.526,20.445 L6.226,21.029 C6.06039627,21.3467663 5.92190485,21.6779414 5.812,22.019 L5.612,22.644 L3,22.9 L3,25.1 L5.61,25.361 L5.81,25.986 C5.91990485,26.3270586 6.05839627,26.6582337 6.224,26.976 L6.524,27.56 L4.862,29.59 L6.41,31.139 L8.443,29.475 L9.026,29.775 C9.34444598,29.9406296 9.67628755,30.07912 10.018,30.189 L10.644,30.389 L10.9,33 Z" id="Path_18871" fill="#FFFFFF" fill-rule="nonzero"></path>
        <path d="M12,28 C9.790861,28 8,26.209139 8,24 C8,21.790861 9.790861,20 12,20 C14.209139,20 16,21.790861 16,24 C16,25.060866 15.5785726,26.0782816 14.8284271,26.8284271 C14.0782816,27.5785726 13.060866,28 12,28 Z M12,22 C10.8954305,22 10,22.8954305 10,24 C10,25.1045695 10.8954305,26 12,26 C13.1045695,26 14,25.1045695 14,24 C14,22.8954305 13.1045695,22 12,22 Z" id="Path_18872" fill="#FFFFFF" fill-rule="nonzero"></path>
    </g>
</svg>

<?xml version="1.0" encoding="utf-8"?>
<!-- Generator: Adobe Illustrator 26.0.1, SVG Export Plug-In . SVG Version: 6.00 Build 0)  -->
<svg version="1.1" id="Layer_1" xmlns="http://www.w3.org/2000/svg" xmlns:xlink="http://www.w3.org/1999/xlink" x="0px" y="0px"
	 viewBox="0 0 24 40" style="enable-background:new 0 0 24 40;" xml:space="preserve">
<style type="text/css">
	.st0{fill:#FFFFFF;}
</style>
<path class="st0" d="M14.9,35H9.1l-0.3-3.1l-0.1,0l-2.4,2l-4.1-4.1l2-2.4l0-0.1L1,26.9v-5.8l3.1-0.3l0-0.1l-2-2.4l4.1-4.1l2.4,2
	l0.1,0L9.1,13h5.8l0.3,3.1l0.1,0l2.4-2l4.1,4.1l-2,2.4l0,0.1l3.1,0.3v5.8l-3.1,0.3l0,0.1l2,2.4l-4.1,4.1l-2.4-2l-0.1,0L14.9,35z
	 M10.9,33h2.2l0.3-2.6l0.6-0.2c0.3-0.1,0.7-0.2,1-0.4l0.6-0.3l2,1.7l1.5-1.5l-1.7-2l0.3-0.6c0.2-0.3,0.3-0.6,0.4-1l0.2-0.6l2.6-0.3
	v-2.2l-2.6-0.3L18.2,22c-0.1-0.3-0.2-0.7-0.4-1l-0.3-0.6l1.7-2l-1.5-1.5l-2,1.7L15,18.2c-0.3-0.2-0.7-0.3-1-0.4l-0.6-0.2L13.1,15
	h-2.2l-0.3,2.6L10,17.8c-0.3,0.1-0.7,0.2-1,0.4l-0.6,0.3l-2-1.7l-1.5,1.5l1.7,2L6.2,21c-0.2,0.3-0.3,0.6-0.4,1l-0.2,0.6L3,22.9v2.2
	l2.6,0.3L5.8,26c0.1,0.3,0.2,0.7,0.4,1l0.3,0.6l-1.7,2l1.5,1.5l2-1.7L9,29.8c0.3,0.2,0.7,0.3,1,0.4l0.6,0.2L10.9,33z M12,28
	c-2.2,0-4-1.8-4-4s1.8-4,4-4s4,1.8,4,4c0,1.1-0.4,2.1-1.2,2.8C14.1,27.6,13.1,28,12,28z M12,22c-1.1,0-2,0.9-2,2s0.9,2,2,2
	s2-0.9,2-2S13.1,22,12,22z"/>
</svg>
